icons/desktop/from-figma.svg

<svg width="16" height="16" viewBox="0 0 16 16" fill="none" xmlns="http://www.w3.org/2000/svg">
<path fill-rule="evenodd" clip-rule="evenodd" d="M15.1 7.60001C15.1 11.7421 11.7421 15.1 7.60001 15.1C3.45787 15.1 0.100006 11.7421 0.100006 7.60001C0.100006 3.45787 3.45787 0.100006 7.60001 0.100006C11.7421 0.100006 15.1 3.45787 15.1 7.60001ZM8.60001 8.20001H11C11.3 8.20001 11.6 7.90001 11.6 7.60001C11.6 7.30001 11.3 7.00001 11 7.00001H8.60001L8.20001 6.60001V4.20001C8.20001 3.90001 7.90001 3.60001 7.60001 3.60001C7.30001 3.60001 7.00001 3.90001 7.00001 4.20001V6.70001L6.60001 7.00001H4.20001C3.90001 7.00001 3.60001 7.20001 3.60001 7.60001C3.60001 8.00001 3.90001 8.20001 4.20001 8.20001H6.70001L7.00001 8.60001V11C7.00001 11.3 7.30001 11.6 7.60001 11.6C7.90001 11.6 8.20001 11.3 8.20001 11V8.60001L8.60001 8.20001Z" fill="black"/></svg>

<!-- This Source Code Form is subject to the terms of the Mozilla Public
   - License, v. 2.0. If a copy of the MPL was not distributed with this
   - file, You can obtain one at http://mozilla.org/MPL/2.0/. -->
<svg xmlns="http://www.w3.org/2000/svg" width="16" height="16" viewBox="0 0 16 16">
    <path d="M15.1 7.6a7.5 7.5 0 1 1-15 0 7.5 7.5 0 0 1 15 0m-6.5.6H11c.3 0 .6-.3.6-.6S11.3 7 11 7H8.6l-.4-.4V4.2c0-.3-.3-.6-.6-.6s-.6.3-.6.6v2.5l-.4.3H4.2c-.3 0-.6.2-.6.6s.3.6.6.6h2.5l.3.4V11c0 .3.3.6.6.6s.6-.3.6-.6V8.6z" />
</svg>
